openframe-frontend-core/src/components/icons-v2/brand-logos/adobe-xd.svg

<svg width="24" height="24" viewBox="0 0 24 24" fill="none" xmlns="http://www.w3.org/2000/svg">
<path d="M19.875 6C19.875 4.96447 19.0355 4.125 18 4.125H6C4.96447 4.125 4.125 4.96447 4.125 6V18C4.125 19.0355 4.96447 19.875 6 19.875H18C19.0355 19.875 19.875 19.0355 19.875 18V6ZM22.125 18C22.125 20.2782 20.2782 22.125 18 22.125H6C3.72183 22.125 1.875 20.2782 1.875 18V6C1.875 3.72183 3.72183 1.875 6 1.875H18C20.2782 1.875 22.125 3.72183 22.125 6V18Z" fill="#888888"/>
<path d="M16.3745 8C16.3745 7.37884 16.8784 6.87526 17.4995 6.875C18.1208 6.875 18.6245 7.37868 18.6245 8V15.9995C18.6245 16.6208 18.1208 17.1245 17.4995 17.1245C17.221 17.1244 16.9694 17.0198 16.7729 16.8521C16.3839 17.026 15.9537 17.1245 15.5 17.1245C13.7741 17.1245 12.3755 15.7259 12.3755 14V12.9995C12.3758 11.2738 13.7743 9.875 15.5 9.875C15.8038 9.875 16.0969 9.92015 16.3745 10.001V8ZM7.47998 16.5518C7.17526 17.093 6.48915 17.2855 5.94775 16.981C5.40649 16.6762 5.21548 15.9901 5.52002 15.4487L7.47998 16.5518ZM10.02 7.44775C10.3248 6.90681 11.011 6.71555 11.5522 7.02002C12.0932 7.32484 12.2844 8.01097 11.98 8.55225L10.0391 11.999L11.98 15.4487C12.2845 15.9901 12.0935 16.6762 11.5522 16.981C11.0108 17.2855 10.3247 17.093 10.02 16.5518L8.75 14.293L7.47998 16.5518L6.5 15.9995L5.52002 15.4487L7.45947 11.999L5.52002 8.55225L5.46875 8.44824C5.24092 7.92582 5.44062 7.30579 5.94775 7.02002C6.45534 6.7345 7.09007 6.8851 7.41846 7.35107L7.47998 7.44775L8.75 9.70508L10.02 7.44775ZM14.6255 14C14.6255 14.4832 15.0168 14.8745 15.5 14.8745C15.923 14.8745 16.2755 14.5747 16.3569 14.1758L16.3745 14V12.9995L16.3569 12.8237C16.2753 12.425 15.9228 12.125 15.5 12.125C15.0169 12.125 14.6258 12.5165 14.6255 12.9995V14Z" fill="#888888"/>
</svg>

<svg xmlns="http://www.w3.org/2000/svg" width="24" height="24" fill="none" viewBox="0 0 24 24">
  <path fill="#888" d="M19.875 6c0-1.036-.84-1.875-1.875-1.875H6c-1.036 0-1.875.84-1.875 1.875v12c0 1.035.84 1.875 1.875 1.875h12c1.035 0 1.875-.84 1.875-1.875V6Zm2.25 12A4.125 4.125 0 0 1 18 22.125H6A4.125 4.125 0 0 1 1.875 18V6A4.125 4.125 0 0 1 6 1.875h12A4.125 4.125 0 0 1 22.125 6v12Z"/>
  <path fill="#888" d="M16.375 8a1.125 1.125 0 0 1 2.25 0v8c0 .62-.504 1.125-1.125 1.125-.279 0-.53-.105-.727-.273A3.124 3.124 0 0 1 12.376 14v-1a3.125 3.125 0 0 1 3.999-3V8ZM7.48 16.552a1.126 1.126 0 0 1-1.96-1.103l1.96 1.103Zm2.54-9.104a1.126 1.126 0 0 1 1.96 1.104L10.04 12l1.94 3.45a1.125 1.125 0 1 1-1.96 1.103l-1.27-2.259-1.27 2.259L6.5 16l-.98-.55L7.46 12 5.52 8.553l-.051-.104a1.124 1.124 0 0 1 1.95-1.097l.061.097 1.27 2.257 1.27-2.257ZM14.626 14a.874.874 0 0 0 1.73.176l.018-.176v-1l-.017-.176a.875.875 0 0 0-1.731.175V14Z"/>
</svg>
